brandFactory_export/1.Light/Cuidar_1Light.svg

<?xml version="1.0" encoding="UTF-8"?>
<svg width="24px" height="24px" viewBox="0 0 24 24" version="1.1" xmlns="http://www.w3.org/2000/svg" xmlns:xlink="http://www.w3.org/1999/xlink">
    <title>1.Light/Cuidar_1Light</title>
    <g id="Symbols" stroke="none" stroke-width="1" fill="none" fill-rule="evenodd">
        <g id="1.Light/Cuidar_1Light" fill="#5CB615" fill-rule="nonzero">
            <path d="M22.0739496,18.3159664 C22.6857143,17.9327731 22.7831933,17.6067227 22.487395,17.0352941 C22.2016807,16.5310924 21.6806723,16.3428571 21.189916,16.5142857 L16.4403361,18.1613445 C16.3798319,18.1815126 16.3226891,18.1815126 16.2621849,18.1815126 C15.9462185,18.3865546 15.5831933,18.5176471 15.210084,18.5176471 L9.27058824,18.5176471 C8.99831933,18.5008403 8.78991597,18.2655462 8.81008403,17.9932773 C8.82689076,17.7445378 9.02521008,17.5462185 9.27058824,17.5327731 L15.210084,17.5327731 C15.7310924,17.5327731 16.2420168,17.0218487 16.2420168,16.497479 C16.2420168,15.9563025 15.8689076,15.5394958 15.3781513,15.5294118 L15.0352941,15.5294118 C14.0705882,15.5495798 12.0638655,15.5966387 10.2084034,14.4235294 C10.1882353,14.4134454 9.12605042,13.7815126 5.63361345,13.7243697 L5.63361345,19.4857143 L11.4151261,22.2655462 C11.8588235,22.5210084 12.3798319,22.6420168 13.0285714,22.6420168 C13.5697479,22.6420168 14.0302521,22.5512605 14.4033613,22.3831933 C14.4436975,22.3596639 20.2756303,19.4621849 22.0739496,18.3159664 Z M4.64877458,21.4319328 L4.64877458,13.3445378 C4.64877458,13.0588235 4.41344538,12.8235294 4.12773109,12.8235294 L1.50252101,12.8235294 C1.21680672,12.8235294 0.981512605,13.0588235 0.981512605,13.3445378 L0.981512605,21.4319328 C0.981512605,21.7176471 1.21680672,21.9529763 1.50252101,21.9529763 L4.12773109,21.9529763 C4.41344538,21.9563025 4.65210084,21.7176471 4.64877458,21.4319328 L4.64877458,21.4319328 Z M23.3512605,16.5714286 C23.7243697,17.2907563 23.902521,18.3260504 22.6016807,19.1462185 C20.7529412,20.3193277 15.0722689,23.1495798 14.8268908,23.2773109 C14.3058824,23.502521 13.7042017,23.6235294 13.0285714,23.6235294 C12.2117647,23.6235294 11.5159664,23.4554622 10.9647059,23.1394958 L5.63697479,20.5747899 L5.63697479,21.4319328 C5.63697479,22.2621849 4.96470588,22.9378151 4.13445378,22.9411765 L1.50252101,22.9411765 C0.672268908,22.9378151 0.00336134454,22.2655462 0,21.4319328 L0,13.3445378 C0,12.5176471 0.678991597,11.8352941 1.50252101,11.8352941 L4.12773109,11.8352941 C4.74621849,11.8352941 5.26722689,12.2016807 5.50588235,12.7327731 C9.41848739,12.7731092 10.6184874,13.512605 10.7361345,13.6033613 C12.3394958,14.5983193 14.0773109,14.5579832 15.0117647,14.5378151 L15.394958,14.5378151 C16.4168067,14.5579832 17.2235294,15.4184874 17.2235294,16.4907563 C17.2235294,16.6184874 17.2033613,16.7361345 17.1764706,16.8537815 L20.8638655,15.5731092 C21.8084034,15.2470588 22.8302521,15.6302521 23.3008403,16.4806723 C23.3008403,16.4840336 23.3512605,16.5714286 23.3512605,16.5714286 Z M2.79327731,13.8789916 C3.30420168,13.8789916 3.67058824,14.2352941 3.67058824,14.7596639 C3.67058824,15.2705882 3.30756303,15.6369748 2.79327731,15.6369748 C2.2789916,15.6369748 1.91596639,15.2672269 1.91596639,14.7563025 C1.91596639,14.2319328 2.2789916,13.8789916 2.79327731,13.8789916 Z M15.7344538,0.98487395 C12.1008403,0.98487395 10.2554622,2.83697479 10.2554622,6.48403361 C10.2554622,10.1310924 12.097479,11.9798319 15.7344538,11.9798319 C19.3714286,11.9798319 21.2134454,10.1310924 21.2134454,6.48403361 C21.2134454,2.83697479 19.3680672,0.98487395 15.7344538,0.98487395 Z M15.7344538,12.9647059 C11.5663866,12.9647059 9.27394589,10.6655462 9.27394589,6.48403361 C9.27058824,2.30252101 11.5663866,0 15.7344538,0 C19.902521,0 22.1983193,2.30252101 22.1983193,6.48403361 C22.194958,10.6655462 19.902521,12.9647059 15.7344538,12.9647059 L15.7344538,12.9647059 Z M12.6521008,5.89243697 L12.6487395,7.0789916 L14.6487395,7.0789916 C14.9210084,7.0789916 15.1394958,7.30084034 15.1394958,7.5697479 L15.1394958,9.57647059 L16.3226891,9.57647059 L16.3226891,7.5697479 C16.3226891,7.29747899 16.5411765,7.07563025 16.8134454,7.07563025 L18.8134454,7.07563025 L18.8134454,5.88907563 L16.8134454,5.88907563 C16.5411765,5.88907563 16.3226891,5.66722689 16.3226891,5.39831933 L16.3226891,3.39159664 L15.1361345,3.39159664 L15.1361345,5.39831933 C15.1361345,5.67058824 14.9176471,5.88907563 14.6453782,5.88907563 L12.6521008,5.89243697 L12.6521008,5.89243697 Z M12.5378151,8.06386555 C12.0638655,8.06386555 11.6672269,7.70084034 11.6672269,7.26722689 L11.6672269,5.69747899 C11.6672269,5.26722689 12.0672269,4.90420168 12.5378151,4.90420168 L14.1579832,4.90084034 L14.1579832,3.27394958 C14.1579832,2.80672269 14.5277311,2.40336134 14.9512605,2.40336134 L16.5142857,2.40336134 C16.9344538,2.40336134 17.307563,2.81008403 17.307563,3.27731092 L17.307563,4.90084034 L18.9310924,4.90084034 C19.394958,4.90084034 19.8016807,5.27058824 19.8016807,5.69411765 L19.8016807,7.26386555 C19.8016807,7.68739496 19.394958,8.05714286 18.9310924,8.05714286 L17.3109244,8.05714286 L17.3109244,9.68403361 C17.3109244,10.1579832 16.9478992,10.5546218 16.5210084,10.5546218 L14.9546218,10.5546218 C14.5243697,10.5546218 14.1613445,10.1546218 14.1613445,9.68067227 L14.1579832,8.05714286 C14.1579832,8.06386555 12.5378151,8.06386555 12.5378151,8.06386555 L12.5378151,8.06386555 Z" id="Cuidar_1Light"></path>
        </g>
    </g>
</svg>

<svg width="24" height="24" viewBox="0 0 24 24" xmlns="http://www.w3.org/2000/svg"><path d="M22.074 18.316c.612-.383.71-.71.413-1.28-.285-.505-.806-.693-1.297-.522l-4.75 1.647a.538.538 0 01-.178.02 1.952 1.952 0 01-1.052.337H9.27a.493.493 0 010-.985h5.94c.521 0 1.032-.511 1.032-1.036 0-.54-.373-.958-.864-.968h-.343c-.964.02-2.971.068-4.827-1.105-.02-.01-1.082-.642-4.574-.7v5.762l5.781 2.78c.444.255.965.376 1.614.376.54 0 1.001-.09 1.374-.259.04-.023 5.873-2.92 7.67-4.067zM4.649 21.432v-8.087a.524.524 0 00-.521-.521H1.503a.524.524 0 00-.521.52v8.088c0 .286.235.521.52.521h2.626a.52.52 0 00.52-.521zm18.702-4.86c.373.719.552 1.754-.75 2.574-1.848 1.173-7.529 4.004-7.774 4.131-.521.226-1.123.347-1.798.347-.817 0-1.513-.169-2.064-.485l-5.328-2.564v.857a1.51 1.51 0 01-1.503 1.51H1.503A1.51 1.51 0 010 21.431v-8.087c0-.827.679-1.51 1.503-1.51h2.625c.618 0 1.14.367 1.378.898 3.912.04 5.112.78 5.23.87 1.603.995 3.341.955 4.276.935h.383c1.022.02 1.829.88 1.829 1.953 0 .127-.02.245-.048.363l3.688-1.28c.944-.327 1.966.056 2.437.907 0 .003.05.09.05.09zM2.793 13.878c.511 0 .878.356.878.88 0 .512-.363.878-.878.878-.514 0-.877-.37-.877-.88 0-.525.363-.878.877-.878zM15.734.985c-3.633 0-5.479 1.852-5.479 5.499 0 3.647 1.842 5.496 5.48 5.496 3.636 0 5.478-1.849 5.478-5.496 0-3.647-1.845-5.5-5.479-5.5zm0 11.98c-4.168 0-6.46-2.3-6.46-6.481C9.27 2.303 11.566 0 15.734 0c4.169 0 6.464 2.303 6.464 6.484-.003 4.182-2.295 6.48-6.464 6.48zm-3.082-7.073L12.65 7.08h2c.272 0 .49.222.49.49v2.007h1.184V7.57c0-.273.218-.494.49-.494h2V5.889h-2a.491.491 0 01-.49-.49V3.391h-1.187v2.006a.49.49 0 01-.49.491l-1.994.003zm-.114 2.172c-.474 0-.87-.363-.87-.797v-1.57c0-.43.4-.793.87-.793l1.62-.003V3.274c0-.467.37-.87.793-.87h1.563c.42 0 .794.406.794.873v1.624h1.623c.464 0 .87.37.87.793v1.57c0 .423-.406.793-.87.793h-1.62v1.627c0 .474-.363.87-.79.87h-1.566c-.43 0-.794-.4-.794-.873l-.003-1.624c0 .007-1.62.007-1.62.007z" fill="#5CB615" fill-rule="nonzero"/></svg>
